assets/images/content/secondStage.svg

<svg width="129" height="148" viewBox="0 0 129 148" fill="none" xmlns="http://www.w3.org/2000/svg">
<path d="M119.135 40.6418V32.0711C119.135 29.0692 116.716 26.6401 113.726 26.6401H106.591" stroke="white" stroke-width="2" stroke-miterlimit="10" stroke-linecap="round" stroke-linejoin="round"/>
<path d="M78.6143 139.495H113.726C116.716 139.495 119.135 137.066 119.135 134.064V70.748" stroke="white" stroke-width="2" stroke-miterlimit="10" stroke-linecap="round" stroke-linejoin="round"/>
<path d="M47.027 16.6846H6.49201C3.50225 16.6846 1.08301 19.1137 1.08301 22.1156V51.4966V87.447" stroke="white" stroke-width="2" stroke-miterlimit="10" stroke-linecap="round" stroke-linejoin="round"/>
<path d="M113.726 139.495C106.591 139.495 106.591 134.651 106.591 131.649V22.1156C106.591 19.1137 104.172 16.6846 101.182 16.6846H61.6006" stroke="white" stroke-width="2" stroke-miterlimit="10" stroke-linecap="round" stroke-linejoin="round"/>
<path d="M106.591 36.0664L124.876 42.7373L106.591 92.0586" stroke="white" stroke-width="2" stroke-miterlimit="10" stroke-linecap="round" stroke-linejoin="round"/>
<path d="M106.591 96.3513L127.916 52.8091L122.255 49.8145" stroke="white" stroke-width="2" stroke-miterlimit="10" stroke-linecap="round" stroke-linejoin="round"/>
<path d="M50.2699 35.595C48.4789 35.595 47.0273 34.1376 47.0273 32.3393V17.0977C47.0273 15.2995 48.4789 13.842 50.2699 13.842H58.3581C60.149 13.842 61.6006 15.2995 61.6006 17.0977V32.3393C61.6006 34.1376 60.149 35.595 58.3581 35.595H50.2699Z" stroke="white" stroke-width="2" stroke-miterlimit="10" stroke-linecap="round" stroke-linejoin="round"/>
<path d="M54.4796 29.896C54.9862 29.896 55.3968 29.4837 55.3968 28.9751C55.3968 28.4665 54.9862 28.0542 54.4796 28.0542C53.9731 28.0542 53.5625 28.4665 53.5625 28.9751C53.5625 29.4837 53.9731 29.896 54.4796 29.896Z" stroke="white" stroke-width="2" stroke-miterlimit="10" stroke-linecap="round" stroke-linejoin="round"/>
<path d="M111.04 26.6401L114.506 16.9456L72.1439 1.08765L66.5977 16.6845" stroke="white" stroke-width="2" stroke-miterlimit="10" stroke-linecap="round" stroke-linejoin="round"/>
<path d="M16.1834 146.912H3.6178C2.22403 146.912 1.08301 145.767 1.08301 144.367V98.7441C1.08301 97.3446 2.22403 96.199 3.6178 96.199H16.1907C17.5844 96.199 18.7255 97.3446 18.7255 98.7441V144.367C18.7182 145.767 17.5772 146.912 16.1834 146.912Z" stroke="white" stroke-width="2" stroke-miterlimit="10" stroke-linecap="round" stroke-linejoin="round"/>
<path d="M19.1729 101.057C19.1729 101.057 34.0133 86.0185 35.9198 82.3278C37.8335 78.637 37.6674 70.5014 38.3463 69.7763C40.0939 67.9056 45.2285 67.8693 46.7234 68.8917C47.7705 69.6023 54.3422 78.1512 46.2829 97.3156C46.2829 97.3156 61.1666 97.0908 67.3411 97.0908C73.5156 97.0908 77.0615 99.3168 77.0615 103.733C77.0615 109.004 74.6639 110.672 74.6639 110.672C74.6639 110.672 78.4408 112.688 77.2925 117.611C76.1515 122.506 71.7247 123.513 71.7247 123.513C71.7247 123.513 74.7072 126.689 73.0462 131.78C71.4791 136.601 66.8934 137.022 66.8934 137.022C66.8934 137.022 69.9698 144.041 63.4848 145.803C61.0222 146.47 36.9453 145.803 32.5329 145.803C28.1205 145.803 19.3895 140.626 19.3895 140.626" stroke="white" stroke-width="2" stroke-miterlimit="10" stroke-linecap="round" stroke-linejoin="round"/>
</svg>

<svg width="129" height="148" fill="none" xmlns="http://www.w3.org/2000/svg"><path d="M119.135 40.642v-8.57c0-3.003-2.419-5.432-5.409-5.432h-7.135M78.614 139.495h35.112c2.99 0 5.409-2.429 5.409-5.431V70.748M47.027 16.685H6.492c-2.99 0-5.409 2.429-5.409 5.43v65.333" stroke="#fff" stroke-width="2" stroke-miterlimit="10" stroke-linecap="round" stroke-linejoin="round"/><path d="M113.726 139.495c-7.135 0-7.135-4.844-7.135-7.846V22.116c0-3.002-2.419-5.431-5.409-5.431H61.601" stroke="#fff" stroke-width="2" stroke-miterlimit="10" stroke-linecap="round" stroke-linejoin="round"/><path d="M106.591 36.066l18.285 6.671-18.285 49.322m0 4.292l21.325-43.542-5.661-2.994M50.27 35.595a3.249 3.249 0 01-3.243-3.256V17.098a3.249 3.249 0 013.243-3.256h8.088a3.249 3.249 0 013.243 3.256v15.241a3.249 3.249 0 01-3.243 3.256H50.27z" stroke="#fff" stroke-width="2" stroke-miterlimit="10" stroke-linecap="round" stroke-linejoin="round"/><path d="M54.48 29.896a.919.919 0 00.917-.92c0-.51-.41-.922-.917-.922a.919.919 0 00-.917.921c0 .509.41.921.917.921zm56.56-3.256l3.466-9.694L72.144 1.088l-5.546 15.596M16.183 146.912H3.618a2.547 2.547 0 01-2.535-2.545V98.744c0-1.4 1.141-2.545 2.535-2.545H16.19a2.548 2.548 0 012.535 2.545v45.623c-.008 1.4-1.149 2.545-2.543 2.545zm2.99-45.855s14.84-15.038 16.747-18.73c1.913-3.69 1.747-11.826 2.426-12.55 1.748-1.871 6.883-1.908 8.377-.885 1.047.71 7.62 9.26-.44 28.424 0 0 14.884-.225 21.058-.225 6.175 0 9.72 2.226 9.72 6.642 0 5.271-2.397 6.939-2.397 6.939s3.777 2.016 2.629 6.939c-1.142 4.895-5.568 5.902-5.568 5.902s2.982 3.176 1.321 8.267c-1.567 4.821-6.153 5.242-6.153 5.242s3.077 7.019-3.408 8.781c-2.463.667-26.54 0-30.952 0-4.413 0-13.143-5.177-13.143-5.177" stroke="#fff" stroke-width="2" stroke-miterlimit="10" stroke-linecap="round" stroke-linejoin="round"/></svg>
